modules/feathericon/icons/text-size.svg

<?xml version="1.0" encoding="UTF-8"?>
<svg width="16px" height="10px" viewBox="0 0 16 10" version="1.1" xmlns="http://www.w3.org/2000/svg" xmlns:xlink="http://www.w3.org/1999/xlink">
    <!-- Generator: sketchtool 48.1 (47250) - http://www.bohemiancoding.com/sketch -->
    <title>text-size</title>
    <desc>Created with sketchtool.</desc>
    <defs></defs>
    <g id="text-edit" stroke="none" stroke-width="1" fill="none" fill-rule="evenodd">
        <g id="text-size" fill="#000000">
            <path d="M9.41104816,8.82069155 L5.90284479,0 L3.97724299,0 L0,10 L1.46345737,10 C1.62217443,10 1.7563817,9.95620145 1.8660832,9.86860304 C1.9757847,9.78100463 2.04930694,9.68418679 2.08665213,9.57814661 L2.84288848,7.53803596 L7.03719931,7.53803596 L7.79343565,9.57814661 C7.84011714,9.69801812 7.91597342,9.79829374 8.02100677,9.87897649 C8.12604013,9.95965923 8.26024739,10 8.42363261,10 L9.88008779,10 L9.87930188,9.99802399 L9.98812113,9.99802399 C10.1014905,9.99802399 10.1973528,9.96673932 10.275711,9.90416902 C10.3540692,9.84159873 10.4065851,9.77244313 10.4332602,9.69670014 L10.9734291,8.23947825 L13.9693654,8.23947825 L14.5095342,9.69670014 C14.5428781,9.78232265 14.5970612,9.85394809 14.672085,9.91157863 C14.7471088,9.96920916 14.8429711,9.99802399 14.9596749,9.99802399 L16,9.99802399 L13.1591121,2.85516685 L11.7836823,2.85516685 L9.41104816,8.82069155 L9.41104816,8.82069155 Z M11.3185369,7.30092856 L13.6242575,7.30092856 C13.6242575,7.30092856 12.5155779,4.25311276 12.4688964,4.08516092 C12.4222149,4.25311276 11.3185369,7.30092856 11.3185369,7.30092856 Z M3.32603947,6.22406639 L6.55404831,6.22406639 C6.55404831,6.22406639 5.00189688,1.95712427 4.9365428,1.7219917 C4.87118871,1.95712427 3.32603947,6.22406639 3.32603947,6.22406639 Z" id="Shape"></path>
        </g>
    </g>
</svg>

<svg width="16" height="10" viewBox="0 0 16 10" xmlns="http://www.w3.org/2000/svg"><path d="M9.411 8.82L5.903 0H3.977L0 10h1.463a.625.625 0 0 0 .403-.131.655.655 0 0 0 .22-.29l.757-2.041h4.194l.756 2.04a.642.642 0 0 0 .63.422H9.88v-.002h.108a.468.468 0 0 0 .445-.301l.54-1.458h2.996l.54 1.458a.459.459 0 0 0 .45.301H16l-2.84-7.143h-1.376L9.41 8.821zm1.908-1.52h2.305s-1.108-3.047-1.155-3.215c-.047.168-1.15 3.216-1.15 3.216zM3.326 6.225h3.228S5.002 1.957 4.937 1.722c-.066.235-1.611 4.502-1.611 4.502z" fill="#000" fill-rule="evenodd"/></svg>
